X: 2663
T:New Grinders,The. HSJJ.110
M:9/8
L:1/8
Q:120
S:HSJ Jackson,Wyresdale,Lancs.1823
R:Slip Jig
O:England
A:Lancashire
H:1823
Z:Chris Partington.
K:G
gfg dcB dcB|gfg efg fga|gfg dcB dcB|cde ABc BAG:|!
|:Bcd dcB edc|Bcd dcB efg|Bcd efg fga|gab ABc BAG:|]
